packages/core/src/svgs/onion.svg

<svg width="24" height="24" viewBox="0 0 24 24" fill="none" xmlns="http://www.w3.org/2000/svg">
<g clip-path="url(#clip0_31_15445)">
<path d="M0 0H24V24H0V0Z" fill="#7D50CF"/>
<path d="M16.5489 10.5195C15.3352 9.2372 13.4743 7.5782 13.2712 6.74591C13.0732 5.90848 13.608 5.14348 13.608 5.14348C12.7578 5.12806 12.2765 5.54163 11.9988 6.01177C11.7258 5.54163 11.2393 5.12806 10.389 5.14348C10.389 5.14348 10.929 5.90848 10.7259 6.74634C10.5283 7.57777 8.66232 9.23763 7.45375 10.5195C4.06932 14.1019 7.01018 18.8573 11.9988 18.8573C16.9925 18.8573 19.9278 14.1019 16.5489 10.5195ZM11.9988 17.7615C9.98832 17.7615 7.70018 16.7175 7.19189 14.6085C6.61461 12.1425 9.11147 10.6279 10.587 9.1442C10.6672 9.2222 10.7473 9.29977 10.8279 9.37691C10.956 9.49606 11.0842 9.61991 11.2179 9.73906C11.1108 9.84191 11.004 9.94048 10.908 10.0335C9.68361 11.1863 7.56604 12.5098 8.02589 14.4066C8.43732 16.1072 10.3946 16.9035 11.9988 16.9035C13.6025 16.9035 15.5593 16.1072 15.9716 14.4066C16.431 12.5093 14.3139 11.1863 13.0895 10.0335C12.5098 9.48269 11.9341 8.92782 11.3623 8.36891C11.6298 8.08991 11.8543 7.83663 11.988 7.64548L11.9988 7.6352L12.0095 7.64548C13.5545 9.81106 17.538 11.5738 16.8108 14.6085C16.2973 16.7171 14.0143 17.7615 11.9988 17.7615ZM13.5279 13.0005C13.4251 12.8811 13.3142 12.7689 13.1962 12.6645L13.8163 12.0341C14.7146 12.9233 15.5705 14.0346 14.2492 15.1198C13.6775 15.5903 12.8165 15.8025 11.988 15.8025C11.1643 15.8025 10.3038 15.5903 9.73161 15.1198C8.40561 14.0291 9.27732 12.9126 10.1808 12.0186L10.8009 12.6542C10.6752 12.7591 10.559 12.875 10.4538 13.0005C9.47489 14.1739 10.908 14.9029 11.988 14.9029C13.0732 14.9029 14.5063 14.1743 13.5279 13.0005ZM12.7308 13.7655C12.282 14.0243 11.6833 14.0033 11.2715 13.7608L11.5762 12.0752C11.4432 12.0054 11.3316 11.9007 11.2535 11.7724C11.1753 11.644 11.1336 11.4969 11.1326 11.3466C11.1326 10.8863 11.5226 10.5092 11.9983 10.5092C12.4796 10.5092 12.8649 10.8863 12.8649 11.3466C12.865 11.4972 12.8237 11.6448 12.7453 11.7733C12.667 11.9019 12.5547 12.0063 12.4209 12.0752L12.7308 13.7655Z" fill="white"/>
</g>
<defs>
<clipPath id="clip0_31_15445">
<rect width="24" height="24" fill="white"/>
</clipPath>
</defs>
</svg>

<svg xmlns="http://www.w3.org/2000/svg" width="24" height="24" fill="none" viewBox="0 0 24 24"><g clip-path="url(#a)"><path fill="#7D50CF" d="M0 0h24v24H0z"/><path fill="#fff" d="M16.549 10.52c-1.214-1.283-3.075-2.942-3.278-3.774-.198-.838.337-1.603.337-1.603-.85-.015-1.332.399-1.61.869-.272-.47-.759-.884-1.609-.869 0 0 .54.765.337 1.603-.198.832-2.064 2.492-3.272 3.774-3.385 3.582-.444 8.337 4.545 8.337 4.993 0 7.929-4.755 4.55-8.337m-4.55 7.242c-2.01 0-4.299-1.044-4.807-3.154-.577-2.466 1.92-3.98 3.395-5.464l.24.233q.192.182.39.362c-.106.103-.213.201-.309.294-1.224 1.153-3.342 2.477-2.882 4.374.411 1.7 2.369 2.497 3.973 2.497s3.56-.797 3.973-2.497c.459-1.898-1.658-3.22-2.883-4.373q-.87-.827-1.727-1.665a7 7 0 0 0 .626-.724l.01-.01.011.01c1.546 2.166 5.529 3.929 4.802 6.964-.514 2.108-2.797 3.153-4.812 3.153M13.528 13a3.5 3.5 0 0 0-.332-.336l.62-.63c.899.888 1.754 2 .433 3.085-.572.47-1.433.683-2.261.683-.824 0-1.684-.213-2.256-.683-1.326-1.09-.455-2.207.449-3.101l.62.635q-.19.158-.347.347c-.98 1.173.454 1.902 1.534 1.902 1.085 0 2.518-.729 1.54-1.902m-.797.765a1.51 1.51 0 0 1-1.46-.005l.305-1.686a.83.83 0 0 1-.443-.728c0-.46.39-.838.865-.838.482 0 .867.377.867.838a.82.82 0 0 1-.444.728z"/></g><defs><clipPath id="a"><path fill="#fff" d="M0 0h24v24H0z"/></clipPath></defs></svg>
